X:2805
T:The New Petronella
P:Hebridean Milking Song
C:Trad.
R:Reel (2x48) AABBAB
B:RSCDS 28-5
Z:Anselm Lingnau <anselm@strathspey.org>
M:C|
L:1/4
K:G
|:d|"G"G>G GG|dd/d/ Bd|G/G/G/G/ DD/D/|"C"EG "D"BA|
    "G"G>G GG|dd/d/ Bd|G/G/G/G/ DG|"D7"BA "G"G:|
|:B|"G"d/d/d/d/ GG/G/|Bd "C"e"G"d|d/d/d/d/ "C"e"G"d/d/|"C"e"G"d B"D#o"A/B/|
    "G"G>G GG|dd/d/ Bd|G/G/G/G/ DG|"D7"BA "G"G:|

